X:89
T:Pinwheel Waltz
M:3/4
L:1/8
C:© Paul Gitlitz 1998
R:Waltz
B:Giblitz Fancy
K:D
cB|"D"Ad fd fd|"A7"ef ed cB|AB AG FE|"D"FG EF D2|!
"D"Ad  fd fd|"A7"ef ed cB|AB AG FE|1"D"D4:|2"D"D4FE|!
|:"D"DF AF AF|"G"DG BG BG|"E7"D^G BG BG|"A7"ABc2e2|!
"D"DF AF AF|"G"DG BG BG|"A7"AB cA GE|1"D"D4FE:|2"D"D4dc|!
|:"G"B2d2g2|b2g3e|"D"a2f3d|A4AB|!
"A7"A2E2F2|G2GF GA|"G"B3cd2|"D"A4dc|!
"G"Bd gd gd|Bd gd gd|"D"f3dB2|A4A,2|!
"D"DF AF AF|DF AF AF|"A7"ED CD EC|1"D"D4dc:|2"D"D4z2|]
